X:1
T:Title
%%score { 1 | 2 }
L:1/8
M:4/4
K:Db
V:1 treble nm="Grand Piano"
V:2 bass 
V:1
 z4 z2[Q:1/4=100] [DF]>[EG] | [FA]2 [FA]>[FA] [FA]2 [DF]>[FA] | [Fd]2 [Gd]>[Gd] [Fd]4 | %3
 A3 A BA [EG]>[CE] |[M:3/4] [DF]6 |[M:1/4] [DF]>[EG] |[M:4/4] [FA]2 [FA]>[FA] [FA]2 [DF]>[FA] | %7
 [Fd]2 [Gd]>[Gd] [Fd]4 | A3 A BA [EG]>[CE] | D6 [FA]>[FA] | G2 c>c c2 B>A | [FA]2 [Fd]2 [Fd]4 | %12
 A2 A>A c2 B>A |[M:9/8] [GB]2 [FA]- [FA] [FA]2- [FA][DF]>[EG] | %14
[M:4/4] [FA]2 [FA]>[FA] [FA]2 [DF]>[FA] | [Fd]2 [Gd]2 [Fd]4 | A3 A BA [EG]>[CE] |[M:3/4] D6 |] %18
V:2
 z4 z2 [D,A,]>[D,A,] | [D,D]2 [D,D]>[D,D] [D,D]2 [D,A,]>[D,A,] | [D,A,]2 [D,B,]>[D,B,] [D,A,]4 | %3
 [A,DF]3 [A,DF] [A,DG][A,DF][K:bass] [A,,A,]>[A,,A,] |[M:3/4] [D,A,]6 |[M:1/4] [D,A,]>[D,A,] | %6
[M:4/4] [D,D]2 [D,D]>[D,D] [D,D]2 [D,A,]>[D,A,] | [D,A,]2 [D,B,]>[D,B,] [D,A,]4 | %8
 [A,DF]3 [A,DF] [A,DG][A,DF][K:bass] [A,,A,]>[A,,A,] | [D,F,]6 [D,D]>[D,D] | %10
 [A,CE]2 [A,E]>[A,E] [A,E]2 [A,CG]>[A,CG] | [D,D]2 [D,A,]2 [D,A,]4 | %12
 [A,CG]2 [A,CG]>[A,CG] [A,EG]2 [A,DG]>[A,CG] | %13
[M:9/8][K:bass] [D,D]2 [D,D]- [D,D] [D,D]2- [D,D][D,A,]>[D,A,] | %14
[M:4/4] [D,D]2 [D,D]>[D,D] [D,D]2 [D,A,]>[D,A,] | [D,A,]2 [D,B,]2 [D,A,]4 | %16
 [A,DF]3 [A,DF] [A,DG][A,DF][K:bass] [A,,A,]>[A,,G,] |[M:3/4] [D,F,]6 |] %18

